printer_data/config/.theme/sidebar-logo.svg

<svg width="369" height="489" viewBox="0 0 369 489" fill="none" xmlns="http://www.w3.org/2000/svg">
<path d="M359.85 96.1801C350.9 69.8201 334.95 48.2501 313.16 31.1501C293.03 15.3401 269.38 7.89011 244.5 3.49011C221.7 -0.549887 198.7 0.250113 175.76 0.150113C119.44 -0.109887 63.12 0.0501126 6.8 0.0401126C4.69 0.0401126 2.58 0.0401126 0 0.0401126V488.24H88.74V295.47C91.3 295.47 93.42 295.47 95.54 295.47C135.03 295.35 174.52 294.98 214 295.17C247.93 295.33 279.07 286.96 307.12 267.46C330.75 251.04 348.37 229.74 358.29 202.83C371.25 167.65 371.97 131.87 359.85 96.1801ZM89.08 74.7001H95.83L194.94 75.2301C209.31 75.4201 223.42 77.9501 236.69 83.8501C254.31 91.6801 265.61 105.78 270.45 123.66C278.27 152.58 274.46 179.55 250.52 200.67C240.12 209.85 227.58 215.26 214 216.46C195.47 218.09 176.81 218.42 158.2 218.77C137.53 219.15 116.85 219 96.17 219.03H89.08V74.7001Z" fill="#54595B"/>
<path d="M117.84 305.03L272.51 486.33H362.42L209.18 305.03H117.84Z" fill="#E4232C"/>
</svg>

<?xml version="1.0" encoding="UTF-8"?>
<svg id="Layer_2" data-name="Layer 2" xmlns="http://www.w3.org/2000/svg" viewBox="0 0 368.5 488.23">
  <defs>
    <style>
      .cls-1 {
        fill: #54595b;
      }

      .cls-1, .cls-2 {
        stroke-width: 0px;
      }

      .cls-2 {
        fill: #e4232c;
      }
    </style>
  </defs>
  <g id="Layer_1_copy_2" data-name="Layer 1 copy 2">
    <g>
      <path class="cls-1" d="M359.85,96.18c-8.95-26.36-24.9-47.93-46.69-65.03-20.13-15.81-43.78-23.26-68.66-27.66C221.7-.55,198.7.25,175.76.15,119.44-.11,63.12.05,6.8.04c-2.11,0-4.22,0-6.8,0v488.2h88.74v-192.77c2.56,0,4.68,0,6.8,0,39.49-.12,78.98-.49,118.46-.3,33.93.16,65.07-8.21,93.12-27.71,23.63-16.42,41.25-37.72,51.17-64.63,12.96-35.18,13.68-70.96,1.56-106.65ZM89.08,74.7h6.75l99.11.53c14.37.19,28.48,2.72,41.75,8.62,17.62,7.83,28.92,21.93,33.76,39.81,7.82,28.92,4.01,55.89-19.93,77.01-10.4,9.18-22.94,14.59-36.52,15.79-18.53,1.63-37.19,1.96-55.8,2.31-20.67.38-41.35.23-62.03.26h0s-7.09,0-7.09,0V74.7Z"/>
      <polygon class="cls-2" points="117.84 305.03 272.51 486.33 362.42 486.33 209.18 305.03 117.84 305.03"/>
    </g>
  </g>
</svg>
